X: 27
T: No_122_We_Will_Run_Around_the_Salt_Bed.krn
N: Derived from No_122_We_Will_Run_Around_the_Salt_Bed.krn
%%abc-version 2.0
%%abcx-abcm2ps-target-version 5.9.1 (29 Sep 2008)
%%abc-creator hum2abc beta
%%abcx-conversion-date 2019/03/15 08:37:56
%%humdrum-veritas 2279092668
%%humdrum-veritas-data 4272127891
%%linebreak <none>
%%barnumbers 0
L: 1/8
M: 2/4
K: Eb clef=bass
[K:clef=bass][M:2/4]C3/B,/ [I:setbarnb 1]| 
C3B, | 
G,2C3/B,/ | 
C3B, | 
G,F,-!fermata!F,2 | 
E,C,E,2 | 
C,C,/C,/ C, z | 
E,2F,/E,/F, | 
F,2E,3/C,/ | 
F,E, !fermata!E,3/C,//C,// | 
E3/E/E2 | 
z2z2



